X:1
T:St. Bartholomew (Thorne), LM
T:St. Bartholomew (Thorne), LM
T:Edward Henry Thorne, 1858
T:Public Domain Courtesy of the Cyber Hymnal™
C:Edward Henry Thorne, 1858
Z:Public Domain
Z:Courtesy of the Cyber Hymnal™
%%score ( 1 2 ) ( 3 4 )
L:1/8
Q:1/4=110
M:4/4
K:G
V:1 treble 
V:2 treble 
V:3 bass 
V:4 bass 
V:1
 [B,G]2 | [DG]2 [DA]2 [DB]2 [Gc]2 | d3 z c [GB]2 B2 | [FB]2 [^DA]2 [EG]2 [EB]2 | %4
 ([FA][EG]) [^DF]2 E2 [EG]2 | [DG]2 [CF]2 [B,G]2 [GB]2 | [FB]2 [EA]2 [^DB]2 [EB]2 | %7
 d3 z c [GB]2 [EG]2 | [DG]2 [DF]2 [DG]2 x |] %9
V:2
 x2 | x8 | G2 (F2 x DE) x2 | x8 | x4 E2 x2 | x8 | x8 | F2 A2 x5 | x7 |] %9
V:3
 [G,,D,]2 | [G,B,]2 [F,A,]2 G,2 [E,G,]2 | [D,A,]2 [D,D]2 [G,,D]2 [G,B,]2 x | %3
 [^D,B,]2 [B,,B,]2 [E,B,]2 [G,,B,]2 | [A,,C]2 [B,,A,]2 [E,G,]2 (G,A,) | %5
 [B,,G,]2 [A,,A,]2 [G,,D,]2 (G,A,) | [D,B,]2 [C,C]2 [B,,F,]2 [E,G,]2 | %7
 [D,A,]2 [F,D]2 [G,D]2 (CB,) x | A,3 z C [G,,B,]2 |] %9
V:4
 x2 | x4 G,2 x2 | x9 | x8 | x6 E,2 | x6 E,2 | x8 | x6 C,2 x | D,2 D,2 x3 |] %9

